X: 16
T: Swedish Waltz  harmony, The
M: 3/4
L: 1/4
Q: 70
K: D
d/e/| f d A | F D A,| E/D/ E/F/ G/A/| G2 A/G/|E/F/G/A/ B/d/|c A E|F/E/ F
/G/ A/c/| d2 d/e/| f d A| F D A,| E/D/ E/F/ G/A/| G2 A/G/|E/F/ G/A/ B/d/
| c A E| F> E F/G/| F2 d/e/|| f/e/ d/c/ B/A/| B/A/ G/F/ E/D/| F D> C| D2
 d/e/|f/e/ d/c/ B/A/|B  E F| G> F G/A/| G2 d/e/| f d A| d2 f/e/| d> c B|
 G A B| d>e d| c>d c/A/| F>E F/G/| F3||
